packages/foundations/assets/icons/functional/images/notification/information_circle_32.svg

<svg width="32" height="32" viewBox="0 0 32 32" fill="none" xmlns="http://www.w3.org/2000/svg">
<g clip-path="url(#clip0_187_185)">
<path fill-rule="evenodd" clip-rule="evenodd" d="M16 2C23.7188 2 30 8.2812 30 16C30 23.7188 23.7188 30 16 30C8.28125 30 2 23.7188 2 16C2 8.2812 8.28125 2 16 2ZM16 4C9.375 4 4 9.375 4 16C4 22.625 9.375 28 16 28C22.625 28 28 22.625 28 16C28 9.375 22.625 4 16 4ZM15.4009 13.1208L14.875 13.25H13.25C12.6875 13.25 12.25 13.6875 12.25 14.25C12.25 14.8125 12.6875 15.25 13.25 15.25H15V21H13C12.4375 21 12 21.4375 12 22C12 22.5625 12.4375 23 13 23H19C19.5625 23 20 22.5625 20 22C20 21.4375 19.5625 21 19 21H17V14C17 13.4335 16.5555 13.0147 15.9967 13.0078C15.8142 13.0057 15.6078 13.07 15.4009 13.1208ZM15.8438 8.0938C15.0312 8.0938 14.3438 8.7812 14.3438 9.5938C14.3438 10.4375 15.0312 11.0938 15.8438 11.0938C16.6875 11.0938 17.3438 10.4375 17.3438 9.5938C17.3438 8.7812 16.6875 8.0938 15.8438 8.0938Z" fill="#1A1C1F"/>
</g>
<defs>
<clipPath id="clip0_187_185">
<rect width="32" height="32" fill="white"/>
</clipPath>
</defs>
</svg>

<svg xmlns="http://www.w3.org/2000/svg" width="32" height="32" fill="none"><g clip-path="url(#a)"><path fill="#1A1C1F" fill-rule="evenodd" d="M16 2c7.719 0 14 6.281 14 14s-6.281 14-14 14S2 23.719 2 16 8.281 2 16 2m0 2C9.375 4 4 9.375 4 16s5.375 12 12 12 12-5.375 12-12S22.625 4 16 4m-.6 9.12-.525.13H13.25c-.562 0-1 .438-1 1s.438 1 1 1H15V21h-2c-.562 0-1 .438-1 1s.438 1 1 1h6c.563 0 1-.437 1-1s-.437-1-1-1h-2v-7c0-.566-.445-.985-1.003-.992-.183-.002-.39.062-.596.113m.444-5.026c-.813 0-1.5.687-1.5 1.5a1.5 1.5 0 0 0 1.5 1.5c.844 0 1.5-.656 1.5-1.5a1.5 1.5 0 0 0-1.5-1.5" clip-rule="evenodd"/></g><defs><clipPath id="a"><path fill="#fff" d="M0 0h32v32H0z"/></clipPath></defs></svg>
